X: 05018
T: DEACON BRODIE'S WELCOME TO DUBLIN
C: Bob McQuillen 19 Oct'80
B: Bob's Note Book 5 #18
%R: march
Z: 2021 John Chambers <jc:trillian.mit.edu>
M: C
L: 1/4
K: G	% and Em
DE \
| G>D B,D | G B2 G | AG FG | A3 c | B>c d>e | dB GB | dg dB | A2 DE |
%%center DEACON
| G>D B,D | G B2 G | AG FG | A c2 e | d>B GD | BA GF | G2 G>G | G2 |]
%%center BRODIE'S
K: Em
[| GF \
| E>B, EF | GE GA | Be e>f | ed GA | Be g>f | ed BA | Be e>f | e2 ef |
%%center TAVERN
| g>f ed | BA Bd | e>d BA | GE GA | Be e>d | BA GF | GE E>D | E2 |]
%%center Rt. 101, Dublin, N.H. 03444 Tel. 603-536-8334
%%begintext align
%% - and it's welcome _you'll_ be, too, when
%% you go there - Fiona's cooking is
%% superb - and Steve provides the
%% greatest music ever - don't miss it!
%%endtext
%%center THIS IS AN UNPAID ADVERTISEMENT
